!!!OTL: SINTE MARTENS VOGELTJE
!!!ARE: Europa, Mitteleuropa, Deutschland
!!!SCT: K1668
!!!YEM: Copyright 1995, estate of Helmut Schaffrath.
**kern
*ICvox
*Ivox
*M2/4
*k[f#]
*G:
=1
{8g
8a
8b
8b
=2
8a
8a
8g
8r}
=3
{8g
16g
16a
8b
8b
=4
8a
8a
8g}
{8b
=5
4a
8g
8b
=6
4a
8g
8b
=7
4a
8g}
{8d
=8
8g
8a
8b
8b
=9
8a
8a
8g
8r}
=10
{4a
8g
8r
=11
8a
8a
8g
8r}
=12
{8dd
8dd
8f#
8f#
=13
8g
8g
4g}
==
!!!AGN: Kinder -, Ansinge - Lied, Bettel - Reim
!!!ONB: ESAC (Essen Associative Code) Database: KINDER
!!!AMT: simple duple
!!!AIN: vox
!!!EED: Helmut Schaffrath
!!!EEV: 1.0
*-
